T: Cameron Highlander, The
M: 4/4
L: 1/8
K: Dmaj
AF |: D2FA D2FA | (3BcB AF A2Bd | D2FA D2FA | (3GAG ED EGFE | D2FA D2FA | (3BcB AF d4 | (3Bcd BA F2EG | FDDC D2 :||dA |: B2BA FAEA | FDDC D2FA | B2BA FADE | FEED E2FA | B2BA FAD2 | (3BcB AF E4 | (3Bcd BA F2FG | FDDC D2:||
